; generated by PrusaSlicer 2.2.0+win64 on 2021-06-30 at 10:30:56 UTC

; 

; external perimeters extrusion width = 0.45mm
; perimeters extrusion width = 0.45mm
; infill extrusion width = 0.45mm
; solid infill extrusion width = 0.45mm
; top infill extrusion width = 0.45mm
; first layer extrusion width = 0.42mm

M73 P0 R104
M201 X9000 Y9000 Z500 E10000 ; sets maximum accelerations, mm/sec^2
M203 X500 Y500 Z12 E120 ; sets maximum feedrates, mm/sec
M204 P2000 R1500 T2000 ; sets acceleration (P, T) and retract acceleration (R), mm/sec^2
M205 X10.00 Y10.00 Z0.20 E4.50 ; sets the jerk limits, mm/sec
M205 S0 T0 ; sets the minimum extruding and travel feed rate, mm/sec
M107
M862.3 P "MK2.5S" ; printer model check
M862.1 P0.4 ; nozzle diameter check
M115 U3.9.3 ; tell printer latest fw version
G90 ; use absolute coordinates
M83  ; extruder relative mode
M104 S230 ; set extruder temp
M140 S85 ; set bed temp
M190 S85 ; wait for bed temp
M109 S230 ; wait for extruder temp
G28 W ; home all without mesh bed level
G80 ; mesh bed leveling
G1 Y-3.0 F1000.0 ; go outside print area
G92 E0.0
G1 X60.0 E9.0 F1000.0 ; intro line
M73 P0 R104
G1 X100.0 E12.5 F1000.0 ; intro line
G92 E0.0
G21 ; set units to millimeters
G90 ; use absolute coordinates
M83 ; use relative distances for extrusion
M900 K0.08 ; Filament gcode LA 1.5
M900 K45 ; Filament gcode LA 1.0
;BEFORE_LAYER_CHANGE
G92 E0.0
;0.2


G1 E-1.40000 F2100.00000
G1 Z0.200 F10800.000
;AFTER_LAYER_CHANGE
;0.2
G1 Z0.400
G1 X76.268 Y62.172
G1 Z0.200
G1 E1.40000 F2100.00000
M204 S1000
G1 F1200.000
G1 X80.843 Y57.473 E0.20561
G1 X86.041 Y53.123 E0.21253
G1 X91.664 Y49.344 E0.21241
G1 X97.610 Y46.192 E0.21101
G1 X103.688 Y43.723 E0.20570
G1 X110.102 Y41.857 E0.20943
G1 X116.673 Y40.660 E0.20943
G1 X123.394 Y40.144 E0.21134
G1 X130.006 Y40.316 E0.20741
G1 X136.631 Y41.174 E0.20943
G1 X143.132 Y42.708 E0.20943
G1 X149.441 Y44.903 E0.20943
G1 X155.490 Y47.734 E0.20943
G1 X161.217 Y51.173 E0.20943
G1 X166.559 Y55.182 E0.20943
G1 X171.418 Y59.676 E0.20752
G1 X175.871 Y64.736 E0.21134
G1 X179.739 Y70.177 E0.20931
G1 X183.031 Y75.993 E0.20955
G1 X185.684 Y82.057 E0.20752
G1 X187.738 Y88.477 E0.21134
G1 X189.094 Y94.955 E0.20752
G1 X189.787 Y101.599 E0.20943
G1 X189.877 Y105.000 E0.10667
G1 X189.787 Y108.400 E0.10666
G1 X189.094 Y115.044 E0.20942
G1 X187.737 Y121.525 E0.20764
G1 X185.685 Y127.942 E0.21122
G1 X183.030 Y134.009 E0.20764
G1 X179.740 Y139.822 E0.20943
G1 X175.872 Y145.263 E0.20931
G1 X171.419 Y150.323 E0.21134
G1 X166.560 Y154.818 E0.20752
G1 X161.215 Y158.829 E0.20955
G1 X155.491 Y162.265 E0.20931
G1 X149.441 Y165.097 E0.20943
G1 X143.133 Y167.292 E0.20943
G1 X136.632 Y168.826 E0.20943
G1 X130.007 Y169.684 E0.20943
G1 X123.391 Y169.856 E0.20752
G1 X116.670 Y169.340 E0.21134
G1 X110.103 Y168.144 E0.20931
G1 X103.686 Y166.276 E0.20955
G1 X97.610 Y163.808 E0.20561
G1 X91.665 Y160.657 E0.21098
G1 X86.042 Y156.878 E0.21241
G1 X80.843 Y152.527 E0.21256
G1 X76.267 Y147.826 E0.20570
G1 X72.121 Y142.588 E0.20943
G1 X68.539 Y136.956 E0.20931
G1 X65.551 Y130.977 E0.20955
G1 X63.196 Y124.731 E0.20931
G1 X61.495 Y118.271 E0.20943
G1 X60.467 Y111.671 E0.20943
G1 X60.123 Y105.001 E0.20943
G1 X60.467 Y98.330 E0.20943
G1 X61.495 Y91.730 E0.20943
G1 X63.196 Y85.270 E0.20943
G1 X65.552 Y79.020 E0.20943
G1 X68.538 Y73.045 E0.20943
G1 X72.123 Y67.409 E0.20943
G1 X76.231 Y62.219 E0.20755
; printing object Coil_R2_2.STL id:0 copy 0
G1 F8640.000
G1 X80.245 Y58.088 E-1.33000
G1 E-0.07000 F2100.00000
G1 Z0.400 F10800.000
G1 X117.210 Y97.534
G1 Z0.200
G1 E1.40000 F2100.00000
G1 F1200.000
G1 X118.584 Y96.325 E0.05738
G1 X120.142 Y95.365 E0.05738
G1 X121.840 Y94.683 E0.05738
G1 X123.629 Y94.297 E0.05738
G1 X125.416 Y94.222 E0.05605
G1 X127.272 Y94.452 E0.05866
G1 X129.023 Y94.988 E0.05742
G1 X130.657 Y95.812 E0.05738
G1 X132.129 Y96.900 E0.05738
G1 X133.395 Y98.222 E0.05738
G1 X134.420 Y99.738 E0.05738
G1 X135.174 Y101.405 E0.05738
G1 X135.635 Y103.176 E0.05738
G1 X135.790 Y105.000 E0.05738
G1 X135.635 Y106.824 E0.05738
G1 X135.174 Y108.595 E0.05738
G1 X134.420 Y110.262 E0.05738
G1 X133.395 Y111.778 E0.05738
G1 X132.129 Y113.100 E0.05738
G1 X130.657 Y114.188 E0.05738
G1 X129.023 Y115.012 E0.05738
G1 X127.273 Y115.548 E0.05738
G1 X125.458 Y115.780 E0.05738
G1 X123.629 Y115.703 E0.05738
G1 X121.840 Y115.317 E0.05738
G1 X120.142 Y114.635 E0.05738
G1 X118.584 Y113.675 E0.05738
G1 X117.210 Y112.466 E0.05738
G1 X116.060 Y111.042 E0.05738
G1 X115.168 Y109.444 E0.05738
G1 X114.924 Y108.755 E0.02294
G1 X114.558 Y107.719 E0.03444
G1 X114.249 Y105.915 E0.05738
G1 X114.249 Y104.085 E0.05738
G1 X114.558 Y102.281 E0.05738
G1 X115.168 Y100.556 E0.05738
G1 X116.060 Y98.958 E0.05738
G1 X117.172 Y97.581 E0.05550
G1 X117.466 Y97.818 F10800.000
G1 F1200.000
G1 X118.809 Y96.629 E0.05623
G1 X120.313 Y95.703 E0.05537
G1 X121.951 Y95.045 E0.05537
G1 X123.678 Y94.673 E0.05537
G1 X125.400 Y94.600 E0.05406
G1 X127.193 Y94.822 E0.05664
G1 X128.882 Y95.339 E0.05538
G1 X130.459 Y96.134 E0.05537
G1 X131.879 Y97.184 E0.05537
G1 X133.101 Y98.459 E0.05537
G1 X134.089 Y99.922 E0.05537
G1 X134.817 Y101.532 E0.05537
G1 X135.262 Y103.240 E0.05537
G1 X135.411 Y105.000 E0.05537
G1 X135.262 Y106.760 E0.05537
G1 X134.817 Y108.468 E0.05537
G1 X134.089 Y110.078 E0.05537
G1 X133.101 Y111.541 E0.05537
G1 X131.879 Y112.816 E0.05537
G1 X130.459 Y113.866 E0.05537
G1 X128.882 Y114.661 E0.05537
G1 X127.193 Y115.178 E0.05537
G1 X125.442 Y115.402 E0.05537
G1 X123.678 Y115.327 E0.05537
G1 X121.951 Y114.955 E0.05537
G1 X120.313 Y114.297 E0.05537
G1 X118.809 Y113.371 E0.05537
G1 X117.483 Y112.204 E0.05537
G1 X116.374 Y110.830 E0.05537
G1 X115.513 Y109.289 E0.05537
G1 X115.280 Y108.629 E0.02193
G1 X114.924 Y107.623 E0.03344
G1 X114.626 Y105.883 E0.05537
G1 X114.626 Y104.117 E0.05537
G1 X114.924 Y102.377 E0.05537
G1 X115.513 Y100.711 E0.05537
G1 X116.374 Y99.170 E0.05537
G1 X117.428 Y97.864 E0.05261
G1 X117.353 Y97.434 F10800.000
G1 F8640.000
G1 X118.809 Y96.629 E-0.42777
G1 X120.313 Y95.703 E-0.40775
G1 X121.951 Y95.045 E-0.40775
G1 X122.318 Y94.966 E-0.08672
G1 E-0.07000 F2100.00000
G1 Z0.400 F10800.000
G1 X111.653 Y103.416
G1 Z0.200
G1 E1.40000 F2100.00000
G1 F1200.000
G1 X111.897 Y103.718 E0.01218
G1 X112.087 Y104.057 E0.01218
G1 X112.216 Y104.423 E0.01218
G1 X112.281 Y104.802 E0.01204
G1 X112.281 Y105.198 E0.01244
G1 X112.216 Y105.577 E0.01204
G1 X112.087 Y105.943 E0.01218
G1 X111.897 Y106.282 E0.01218
G1 X111.653 Y106.584 E0.01218
G1 X111.362 Y106.841 E0.01218
G1 X111.031 Y107.045 E0.01218
G1 X110.671 Y107.190 E0.01218
G1 X110.291 Y107.271 E0.01218
G1 X109.903 Y107.288 E0.01218
G1 X109.518 Y107.239 E0.01218
G1 X109.146 Y107.125 E0.01218
G1 X108.799 Y106.950 E0.01218
G1 X108.487 Y106.719 E0.01218
G1 X108.218 Y106.439 E0.01218
G1 X108.001 Y106.117 E0.01218
G1 X107.841 Y105.763 E0.01218
G1 X107.743 Y105.387 E0.01218
G1 X107.710 Y105.000 E0.01218
G1 X107.743 Y104.613 E0.01218
G1 X107.841 Y104.237 E0.01218
G1 X107.987 Y103.915 E0.01110
G1 X108.215 Y103.565 E0.01310
G1 X108.487 Y103.281 E0.01232
G1 X108.799 Y103.050 E0.01218
G1 X109.146 Y102.875 E0.01218
G1 X109.518 Y102.761 E0.01218
G1 X109.869 Y102.717 E0.01110
G1 X110.286 Y102.728 E0.01310
G1 X110.671 Y102.810 E0.01232
G1 X111.031 Y102.955 E0.01218
G1 X111.362 Y103.159 E0.01218
G1 X111.608 Y103.376 E0.01030
G1 X111.359 Y103.659 F10800.000
G1 F1200.000
G1 X111.584 Y103.930 E0.01103
G1 X111.742 Y104.213 E0.01017
G1 X111.850 Y104.518 E0.01017
G1 X111.904 Y104.834 E0.01003
G1 X111.904 Y105.166 E0.01043
G1 X111.850 Y105.482 E0.01003
G1 X111.742 Y105.787 E0.01017
G1 X111.584 Y106.070 E0.01017
G1 X111.380 Y106.323 E0.01017
G1 X111.137 Y106.537 E0.01017
G1 X110.861 Y106.707 E0.01017
G1 X110.560 Y106.828 E0.01017
G1 X110.243 Y106.896 E0.01017
G1 X109.919 Y106.910 E0.01017
G1 X109.597 Y106.869 E0.01017
G1 X109.287 Y106.774 E0.01017
G1 X108.998 Y106.628 E0.01017
G1 X108.737 Y106.435 E0.01017
G1 X108.513 Y106.201 E0.01017
G1 X108.331 Y105.932 E0.01017
G1 X108.198 Y105.637 E0.01017
G1 X108.116 Y105.323 E0.01017
G1 X108.089 Y105.000 E0.01017
G1 X108.116 Y104.677 E0.01017
G1 X108.198 Y104.363 E0.01017
G1 X108.318 Y104.096 E0.00918
G1 X108.512 Y103.800 E0.01109
G1 X108.737 Y103.565 E0.01022
G1 X108.998 Y103.372 E0.01017
G1 X109.287 Y103.226 E0.01017
G1 X109.597 Y103.131 E0.01017
G1 X109.888 Y103.094 E0.00918
G1 X110.241 Y103.104 E0.01109
G1 X110.560 Y103.172 E0.01022
G1 X110.861 Y103.293 E0.01017
G1 X111.137 Y103.463 E0.01017
G1 X111.314 Y103.619 E0.00741
G1 X111.700 Y103.572 F10800.000
G1 F8640.000
G1 X111.584 Y103.930 E-0.09493
G1 X111.742 Y104.213 E-0.07486
G1 X111.850 Y104.518 E-0.07486
G1 X111.904 Y104.834 E-0.07388
G1 X111.904 Y105.166 E-0.07681
G1 X111.850 Y105.482 E-0.07387
G1 X111.742 Y105.787 E-0.07486
G1 X111.584 Y106.070 E-0.07486
G1 X111.380 Y106.323 E-0.07486
G1 X111.137 Y106.537 E-0.07486
G1 X110.861 Y106.707 E-0.07486
G1 X110.560 Y106.828 E-0.07486
G1 X110.243 Y106.896 E-0.07486
G1 X109.919 Y106.910 E-0.07486
G1 X109.597 Y106.869 E-0.07486
G1 X109.287 Y106.774 E-0.07486
G1 X108.998 Y106.628 E-0.07486
G1 X108.868 Y106.532 E-0.03732
G1 E-0.07000 F2100.00000
G1 Z0.400 F10800.000
G1 X104.927 Y109.564
G1 Z0.200
G1 E1.40000 F2100.00000
G1 F1200.000
G1 X106.201 Y113.202 E0.12087
G1 X107.633 Y115.912 E0.09612
G1 X109.453 Y118.379 E0.09612
G1 X111.621 Y120.547 E0.09612
G1 X114.088 Y122.367 E0.09612
G1 X116.798 Y123.799 E0.09612
G1 X120.436 Y125.073 E0.12087
G1 X111.958 Y156.716 E1.02716
G1 X105.903 Y154.749 E0.19960
G1 X100.808 Y152.480 E0.17489
G1 X95.977 Y149.691 E0.17489
G1 X91.465 Y146.413 E0.17489
G1 X87.320 Y142.680 E0.17489
G1 X83.587 Y138.535 E0.17489
G1 X80.309 Y134.023 E0.17489
G1 X77.520 Y129.192 E0.17489
G1 X75.251 Y124.097 E0.17489
G1 X73.284 Y118.042 E0.19960
G1 X104.870 Y109.579 E1.02528
G1 X104.687 Y110.018 F10800.000
G1 F1200.000
G1 X105.854 Y113.353 E0.11078
G1 X107.313 Y116.114 E0.09789
G1 X109.167 Y118.626 E0.09789
G1 X111.374 Y120.833 E0.09789
G1 X113.886 Y122.687 E0.09789
G1 X116.647 Y124.146 E0.09789
G1 X119.982 Y125.313 E0.11078
G1 X111.696 Y156.235 E1.00373
G1 X106.039 Y154.396 E0.18652
G1 X100.979 Y152.144 E0.17365
G1 X96.183 Y149.375 E0.17365
G1 X91.702 Y146.119 E0.17365
G1 X87.587 Y142.413 E0.17365
G1 X83.881 Y138.298 E0.17365
G1 X80.625 Y133.817 E0.17365
G1 X77.856 Y129.021 E0.17365
G1 X75.604 Y123.961 E0.17365
G1 X73.765 Y118.304 E0.18652
G1 X104.629 Y110.034 E1.00185
G1 X105.060 Y109.872 F10800.000
G1 F8640.000
G1 X105.854 Y113.353 E-0.81698
G1 X106.892 Y115.318 E-0.51302
G1 E-0.07000 F2100.00000
G1 Z0.400 F10800.000
G1 X137.743 Y105.387
G1 Z0.200
G1 E1.40000 F2100.00000
G1 F1200.000
G1 X137.710 Y105.000 E0.01218
G1 X137.743 Y104.613 E0.01218
G1 X137.841 Y104.237 E0.01218
G1 X138.001 Y103.883 E0.01218
G1 X138.218 Y103.561 E0.01218
G1 X138.487 Y103.281 E0.01218
G1 X138.799 Y103.050 E0.01218
G1 X139.146 Y102.875 E0.01218
G1 X139.518 Y102.761 E0.01218
G1 X139.869 Y102.717 E0.01110
G1 X140.286 Y102.728 E0.01310
G1 X140.671 Y102.810 E0.01232
G1 X141.031 Y102.955 E0.01218
G1 X141.362 Y103.159 E0.01218
G1 X141.653 Y103.416 E0.01218
G1 X141.897 Y103.718 E0.01218
G1 X142.087 Y104.057 E0.01218
G1 X142.216 Y104.423 E0.01218
G1 X142.282 Y104.806 E0.01218
G1 X142.282 Y105.194 E0.01218
G1 X142.216 Y105.577 E0.01218
G1 X142.087 Y105.943 E0.01218
G1 X141.897 Y106.282 E0.01218
G1 X141.653 Y106.584 E0.01218
G1 X141.362 Y106.841 E0.01218
G1 X141.031 Y107.045 E0.01218
G1 X140.671 Y107.190 E0.01218
G1 X140.291 Y107.271 E0.01218
G1 X139.903 Y107.288 E0.01218
G1 X139.518 Y107.239 E0.01218
G1 X139.146 Y107.125 E0.01218
G1 X138.799 Y106.950 E0.01218
G1 X138.487 Y106.719 E0.01218
G1 X138.218 Y106.439 E0.01218
G1 X138.001 Y106.117 E0.01218
G1 X137.841 Y105.763 E0.01218
G1 X137.758 Y105.445 E0.01030
G1 X138.123 Y105.350 F10800.000
G1 F1200.000
G1 X138.089 Y105.000 E0.01103
G1 X138.116 Y104.677 E0.01017
G1 X138.198 Y104.363 E0.01017
G1 X138.331 Y104.068 E0.01017
G1 X138.513 Y103.799 E0.01017
G1 X138.737 Y103.565 E0.01017
G1 X138.998 Y103.372 E0.01017
G1 X139.287 Y103.226 E0.01017
G1 X139.597 Y103.131 E0.01017
G1 X139.888 Y103.094 E0.00918
G1 X140.241 Y103.104 E0.01109
G1 X140.560 Y103.172 E0.01022
G1 X140.861 Y103.293 E0.01017
G1 X141.137 Y103.463 E0.01017
G1 X141.380 Y103.677 E0.01017
G1 X141.584 Y103.930 E0.01017
G1 X141.742 Y104.213 E0.01017
G1 X141.850 Y104.518 E0.01017
G1 X141.905 Y104.838 E0.01017
G1 X141.905 Y105.162 E0.01017
G1 X141.850 Y105.482 E0.01017
G1 X141.742 Y105.787 E0.01017
G1 X141.584 Y106.070 E0.01017
G1 X141.380 Y106.323 E0.01017
G1 X141.137 Y106.537 E0.01017
G1 X140.861 Y106.707 E0.01017
G1 X140.560 Y106.828 E0.01017
G1 X140.243 Y106.896 E0.01017
G1 X139.919 Y106.910 E0.01017
G1 X139.597 Y106.869 E0.01017
G1 X139.287 Y106.774 E0.01017
G1 X138.998 Y106.628 E0.01017
G1 X138.737 Y106.435 E0.01017
G1 X138.513 Y106.201 E0.01017
G1 X138.331 Y105.932 E0.01017
G1 X138.198 Y105.637 E0.01017
G1 X138.138 Y105.408 E0.00741
G1 X137.792 Y105.232 F10800.000
G1 F8640.000
G1 X138.089 Y105.000 E-0.09493
G1 X138.116 Y104.677 E-0.07486
G1 X138.198 Y104.363 E-0.07486
G1 X138.331 Y104.068 E-0.07486
G1 X138.513 Y103.799 E-0.07486
G1 X138.737 Y103.565 E-0.07486
G1 X138.998 Y103.372 E-0.07486
G1 X139.287 Y103.226 E-0.07486
G1 X139.597 Y103.131 E-0.07486
G1 X139.888 Y103.094 E-0.06761
G1 X140.241 Y103.104 E-0.08164
G1 X140.560 Y103.172 E-0.07525
G1 X140.861 Y103.293 E-0.07486
G1 X141.137 Y103.463 E-0.07486
G1 X141.380 Y103.677 E-0.07486
G1 X141.584 Y103.930 E-0.07486
G1 X141.742 Y104.213 E-0.07486
G1 X141.796 Y104.365 E-0.03739
G1 E-0.07000 F2100.00000
G1 Z0.400 F10800.000
G1 X145.073 Y109.564
G1 Z0.200
G1 E1.40000 F2100.00000
G1 F1200.000
G1 X176.716 Y118.042 E1.02716
G1 X174.749 Y124.097 E0.19960
G1 X172.480 Y129.192 E0.17489
G1 X169.691 Y134.023 E0.17489
G1 X168.363 Y135.851 E0.07084
G1 X166.413 Y138.535 E0.10405
G1 X162.680 Y142.680 E0.17489
G1 X158.535 Y146.413 E0.17489
G1 X154.023 Y149.691 E0.17489
G1 X149.192 Y152.480 E0.17489
G1 X144.097 Y154.749 E0.17489
G1 X138.042 Y156.716 E0.19960
G1 X129.564 Y125.073 E1.02716
G1 X133.202 Y123.799 E0.12087
G1 X135.912 Y122.367 E0.09612
G1 X138.379 Y120.547 E0.09612
G1 X140.547 Y118.379 E0.09612
G1 X142.367 Y115.912 E0.09612
G1 X143.799 Y113.202 E0.09612
G1 X145.053 Y109.620 E0.11898
G1 X145.313 Y110.018 F10800.000
G1 F1200.000
G1 X176.235 Y118.304 E1.00373
G1 X174.396 Y123.961 E0.18652
G1 X172.144 Y129.021 E0.17365
G1 X169.375 Y133.817 E0.17365
G1 X168.058 Y135.629 E0.07022
M73 P1 R103
G1 X166.119 Y138.298 E0.10343
G1 X162.413 Y142.413 E0.17365
G1 X158.298 Y146.119 E0.17365
G1 X153.817 Y149.375 E0.17365
G1 X149.021 Y152.144 E0.17365
G1 X143.961 Y154.396 E0.17365
G1 X138.304 Y156.235 E0.18652
G1 X130.018 Y125.313 E1.00373
G1 X133.353 Y124.146 E0.11078
G1 X136.114 Y122.687 E0.09789
G1 X138.626 Y120.833 E0.09789
G1 X140.833 Y118.626 E0.09789
G1 X142.687 Y116.114 E0.09789
G1 X144.146 Y113.353 E0.09789
G1 X145.293 Y110.075 E0.10890
G1 X145.435 Y109.637 F10800.000
G1 F8640.000
G1 X150.860 Y111.555 E-1.33000
G1 E-0.07000 F2100.00000
G1 Z0.400 F10800.000
G1 X180.243 Y105.387
G1 Z0.200
G1 E1.40000 F2100.00000
G1 F1200.000
G1 X180.210 Y105.000 E0.01218
G1 X180.243 Y104.613 E0.01218
G1 X180.341 Y104.237 E0.01218
G1 X180.487 Y103.915 E0.01110
G1 X180.715 Y103.565 E0.01310
G1 X180.987 Y103.281 E0.01232
G1 X181.299 Y103.050 E0.01218
G1 X181.646 Y102.875 E0.01218
G1 X182.018 Y102.761 E0.01218
G1 X182.369 Y102.717 E0.01110
G1 X182.786 Y102.728 E0.01310
G1 X183.171 Y102.810 E0.01232
G1 X183.531 Y102.955 E0.01218
G1 X183.862 Y103.159 E0.01218
G1 X184.153 Y103.416 E0.01218
G1 X184.397 Y103.718 E0.01218
G1 X184.587 Y104.057 E0.01218
G1 X184.716 Y104.423 E0.01218
G1 X184.781 Y104.802 E0.01204
G1 X184.781 Y105.198 E0.01244
G1 X184.716 Y105.577 E0.01204
G1 X184.587 Y105.943 E0.01218
G1 X184.397 Y106.282 E0.01218
G1 X184.153 Y106.584 E0.01218
G1 X183.862 Y106.841 E0.01218
G1 X183.531 Y107.045 E0.01218
G1 X183.171 Y107.190 E0.01218
G1 X182.791 Y107.271 E0.01218
G1 X182.403 Y107.288 E0.01218
G1 X182.018 Y107.239 E0.01218
G1 X181.646 Y107.125 E0.01218
G1 X181.299 Y106.950 E0.01218
G1 X180.987 Y106.719 E0.01218
G1 X180.718 Y106.439 E0.01218
G1 X180.501 Y106.117 E0.01218
