; generated by PrusaSlicer 2.2.0+win64 on 2021-06-30 at 10:30:17 UTC

; 

; external perimeters extrusion width = 0.45mm
; perimeters extrusion width = 0.45mm
; infill extrusion width = 0.45mm
; solid infill extrusion width = 0.45mm
; top infill extrusion width = 0.45mm
; first layer extrusion width = 0.42mm

M73 P0 R180
M201 X9000 Y9000 Z500 E10000 ; sets maximum accelerations, mm/sec^2
M203 X500 Y500 Z12 E120 ; sets maximum feedrates, mm/sec
M204 P2000 R1500 T2000 ; sets acceleration (P, T) and retract acceleration (R), mm/sec^2
M205 X10.00 Y10.00 Z0.20 E4.50 ; sets the jerk limits, mm/sec
M205 S0 T0 ; sets the minimum extruding and travel feed rate, mm/sec
M107
M862.3 P "MK2.5S" ; printer model check
M862.1 P0.4 ; nozzle diameter check
M115 U3.9.3 ; tell printer latest fw version
G90 ; use absolute coordinates
M83  ; extruder relative mode
M104 S230 ; set extruder temp
M140 S85 ; set bed temp
M190 S85 ; wait for bed temp
M109 S230 ; wait for extruder temp
G28 W ; home all without mesh bed level
G80 ; mesh bed leveling
G1 Y-3.0 F1000.0 ; go outside print area
G92 E0.0
G1 X60.0 E9.0 F1000.0 ; intro line
M73 P0 R180
G1 X100.0 E12.5 F1000.0 ; intro line
G92 E0.0
G21 ; set units to millimeters
G90 ; use absolute coordinates
M83 ; use relative distances for extrusion
M900 K0.08 ; Filament gcode LA 1.5
M900 K45 ; Filament gcode LA 1.0
;BEFORE_LAYER_CHANGE
G92 E0.0
;0.2


G1 E-1.40000 F2100.00000
G1 Z0.200 F10800.000
;AFTER_LAYER_CHANGE
;0.2
G1 Z0.400
G1 X77.418 Y60.902
G1 Z0.200
G1 E1.40000 F2100.00000
M204 S1000
G1 F1200.000
G1 X82.280 Y56.173 E0.21265
G1 X87.712 Y51.909 E0.21653
G1 X93.563 Y48.248 E0.21641
G1 X99.773 Y45.228 E0.21653
G1 X106.270 Y42.886 E0.21653
G1 X112.978 Y41.246 E0.21653
G1 X119.823 Y40.330 E0.21653
G1 X126.669 Y40.145 E0.21474
G1 X133.610 Y40.697 E0.21831
G1 X140.393 Y41.975 E0.21641
G1 X147.008 Y43.970 E0.21665
G1 X153.256 Y46.603 E0.21259
G1 X159.518 Y50.071 E0.22444
G1 X165.066 Y53.973 E0.21265
G1 X170.305 Y58.564 E0.21843
G1 X174.946 Y63.595 E0.21462
G1 X179.062 Y69.135 E0.21641
G1 X182.568 Y75.085 E0.21653
G1 X185.399 Y81.317 E0.21462
G1 X187.591 Y87.930 E0.21843
G1 X189.040 Y94.616 E0.21450
G1 X189.781 Y101.482 E0.21652
G1 X189.877 Y105.001 E0.11040
G1 X189.781 Y108.519 E0.11033
G1 X189.040 Y115.382 E0.21645
G1 X187.591 Y122.072 E0.21462
G1 X185.398 Y128.685 E0.21843
G1 X182.569 Y134.914 E0.21450
G1 X179.063 Y140.863 E0.21653
G1 X174.945 Y146.407 E0.21653
G1 X170.304 Y151.438 E0.21462
G1 X165.064 Y156.029 E0.21843
G1 X159.416 Y159.996 E0.21641
G1 X153.372 Y163.344 E0.21665
G1 X147.127 Y165.984 E0.21259
G1 X140.273 Y168.050 E0.22444
G1 X133.608 Y169.303 E0.21265
G1 X126.663 Y169.855 E0.21843
G1 X119.825 Y169.670 E0.21450
G1 X112.980 Y168.754 E0.21653
G1 X106.271 Y167.115 E0.21653
G1 X99.775 Y164.772 E0.21653
G1 X93.565 Y161.752 E0.21653
G1 X87.710 Y158.090 E0.21653
G1 X82.278 Y153.825 E0.21653
G1 X77.418 Y149.098 E0.21259
G1 X72.984 Y143.769 E0.21735
G1 X72.412 Y142.927 E0.03194
G1 X69.100 Y137.927 E0.18804
G1 X65.871 Y131.691 E0.22015
G1 X63.405 Y125.374 E0.21265
G1 X61.588 Y118.711 E0.21653
G1 X60.491 Y111.897 E0.21641
G1 X60.123 Y105.001 E0.21653
G1 X60.490 Y98.105 E0.21653
G1 X61.589 Y91.287 E0.21653
G1 X63.406 Y84.624 E0.21653
G1 X65.873 Y78.305 E0.21271
G1 X69.103 Y72.068 E0.22022
G1 X72.850 Y66.413 E0.21271
G1 X77.380 Y60.949 E0.22256
; printing object Coil_R2.STL id:0 copy 0
G1 F8640.000
G1 X81.505 Y56.929 E-1.33000
G1 E-0.07000 F2100.00000
G1 Z0.400 F10800.000
G1 X117.210 Y97.534
G1 Z0.200
G1 E1.40000 F2100.00000
G1 F1200.000
G1 X118.584 Y96.325 E0.05738
G1 X120.142 Y95.365 E0.05738
G1 X121.840 Y94.683 E0.05738
G1 X123.629 Y94.297 E0.05738
G1 X125.406 Y94.222 E0.05574
G1 X127.272 Y94.452 E0.05896
G1 X129.023 Y94.988 E0.05743
G1 X130.657 Y95.812 E0.05738
G1 X132.129 Y96.900 E0.05738
G1 X133.395 Y98.222 E0.05738
G1 X134.420 Y99.738 E0.05738
G1 X135.174 Y101.405 E0.05738
G1 X135.635 Y103.176 E0.05738
G1 X135.790 Y105.000 E0.05738
G1 X135.635 Y106.824 E0.05738
G1 X135.174 Y108.595 E0.05738
G1 X134.420 Y110.262 E0.05738
G1 X133.395 Y111.778 E0.05738
G1 X132.129 Y113.100 E0.05738
G1 X130.657 Y114.188 E0.05738
G1 X129.023 Y115.012 E0.05738
G1 X127.273 Y115.548 E0.05738
G1 X125.458 Y115.780 E0.05738
G1 X123.629 Y115.703 E0.05738
G1 X121.840 Y115.317 E0.05738
G1 X120.142 Y114.635 E0.05738
G1 X118.584 Y113.675 E0.05738
G1 X117.210 Y112.466 E0.05738
G1 X116.060 Y111.042 E0.05738
G1 X115.168 Y109.444 E0.05738
G1 X115.010 Y108.996 E0.01489
G1 X114.558 Y107.719 E0.04249
G1 X114.249 Y105.915 E0.05738
G1 X114.249 Y104.085 E0.05738
G1 X114.558 Y102.281 E0.05738
G1 X115.168 Y100.556 E0.05738
G1 X116.060 Y98.958 E0.05738
G1 X117.172 Y97.581 E0.05550
G1 X117.466 Y97.818 F10800.000
G1 F1200.000
G1 X118.809 Y96.629 E0.05623
G1 X120.313 Y95.703 E0.05537
G1 X121.951 Y95.045 E0.05537
G1 X123.678 Y94.673 E0.05537
G1 X125.390 Y94.600 E0.05376
G1 X127.193 Y94.822 E0.05694
G1 X128.882 Y95.339 E0.05539
G1 X130.459 Y96.134 E0.05537
G1 X131.879 Y97.184 E0.05537
G1 X133.101 Y98.459 E0.05537
G1 X134.089 Y99.922 E0.05537
G1 X134.817 Y101.532 E0.05537
G1 X135.262 Y103.240 E0.05537
G1 X135.411 Y105.000 E0.05537
G1 X135.262 Y106.760 E0.05537
G1 X134.817 Y108.468 E0.05537
G1 X134.089 Y110.078 E0.05537
G1 X133.101 Y111.541 E0.05537
G1 X131.879 Y112.816 E0.05537
G1 X130.459 Y113.866 E0.05537
G1 X128.882 Y114.661 E0.05537
G1 X127.193 Y115.178 E0.05537
G1 X125.442 Y115.402 E0.05537
G1 X123.678 Y115.327 E0.05537
G1 X121.951 Y114.955 E0.05537
G1 X120.313 Y114.297 E0.05537
G1 X118.809 Y113.371 E0.05537
G1 X117.483 Y112.204 E0.05537
G1 X116.374 Y110.830 E0.05537
G1 X115.513 Y109.289 E0.05537
G1 X115.365 Y108.871 E0.01389
G1 X114.924 Y107.623 E0.04148
G1 X114.626 Y105.883 E0.05537
G1 X114.626 Y104.117 E0.05537
G1 X114.924 Y102.377 E0.05537
G1 X115.513 Y100.711 E0.05537
G1 X116.374 Y99.170 E0.05537
G1 X117.428 Y97.864 E0.05261
G1 X117.353 Y97.434 F10800.000
G1 F8640.000
G1 X118.809 Y96.629 E-0.42777
G1 X120.313 Y95.703 E-0.40775
G1 X121.951 Y95.045 E-0.40775
G1 X122.318 Y94.966 E-0.08672
G1 E-0.07000 F2100.00000
G1 Z0.400 F10800.000
G1 X111.653 Y103.416
G1 Z0.200
G1 E1.40000 F2100.00000
G1 F1200.000
G1 X111.897 Y103.718 E0.01218
G1 X112.087 Y104.057 E0.01218
G1 X112.216 Y104.423 E0.01218
G1 X112.281 Y104.802 E0.01204
G1 X112.281 Y105.198 E0.01244
G1 X112.216 Y105.577 E0.01204
G1 X112.087 Y105.943 E0.01218
G1 X111.897 Y106.282 E0.01218
G1 X111.653 Y106.584 E0.01218
G1 X111.362 Y106.841 E0.01218
G1 X111.031 Y107.045 E0.01218
G1 X110.671 Y107.190 E0.01218
G1 X110.291 Y107.271 E0.01218
G1 X109.903 Y107.288 E0.01218
G1 X109.518 Y107.239 E0.01218
G1 X109.146 Y107.125 E0.01218
G1 X108.799 Y106.950 E0.01218
G1 X108.487 Y106.719 E0.01218
G1 X108.218 Y106.439 E0.01218
G1 X108.020 Y106.145 E0.01110
G1 X107.842 Y105.767 E0.01310
G1 X107.743 Y105.387 E0.01232
G1 X107.710 Y105.000 E0.01218
G1 X107.743 Y104.613 E0.01218
G1 X107.841 Y104.237 E0.01218
G1 X107.987 Y103.915 E0.01110
G1 X108.215 Y103.565 E0.01310
G1 X108.487 Y103.281 E0.01232
G1 X108.799 Y103.050 E0.01218
G1 X109.146 Y102.875 E0.01218
G1 X109.518 Y102.761 E0.01218
G1 X109.869 Y102.717 E0.01110
G1 X110.286 Y102.728 E0.01310
G1 X110.671 Y102.810 E0.01232
G1 X111.031 Y102.955 E0.01218
G1 X111.362 Y103.159 E0.01218
G1 X111.608 Y103.376 E0.01030
G1 X111.359 Y103.659 F10800.000
G1 F1200.000
G1 X111.584 Y103.930 E0.01103
G1 X111.742 Y104.213 E0.01017
G1 X111.850 Y104.518 E0.01017
G1 X111.904 Y104.834 E0.01003
G1 X111.904 Y105.166 E0.01043
G1 X111.850 Y105.482 E0.01003
G1 X111.742 Y105.787 E0.01017
G1 X111.584 Y106.070 E0.01017
G1 X111.380 Y106.323 E0.01017
G1 X111.137 Y106.537 E0.01017
G1 X110.861 Y106.707 E0.01017
G1 X110.560 Y106.828 E0.01017
G1 X110.243 Y106.896 E0.01017
G1 X109.919 Y106.910 E0.01017
G1 X109.597 Y106.869 E0.01017
G1 X109.287 Y106.774 E0.01017
G1 X108.998 Y106.628 E0.01017
G1 X108.737 Y106.435 E0.01017
G1 X108.513 Y106.201 E0.01017
G1 X108.349 Y105.958 E0.00918
G1 X108.198 Y105.638 E0.01109
G1 X108.116 Y105.323 E0.01022
G1 X108.089 Y105.000 E0.01017
G1 X108.116 Y104.677 E0.01017
G1 X108.198 Y104.363 E0.01017
G1 X108.318 Y104.096 E0.00918
G1 X108.512 Y103.800 E0.01109
G1 X108.737 Y103.565 E0.01022
G1 X108.998 Y103.372 E0.01017
G1 X109.287 Y103.226 E0.01017
G1 X109.597 Y103.131 E0.01017
G1 X109.888 Y103.094 E0.00918
G1 X110.241 Y103.104 E0.01109
G1 X110.560 Y103.172 E0.01022
G1 X110.861 Y103.293 E0.01017
G1 X111.137 Y103.463 E0.01017
G1 X111.314 Y103.619 E0.00741
G1 X111.700 Y103.572 F10800.000
G1 F8640.000
G1 X111.584 Y103.930 E-0.09493
G1 X111.742 Y104.213 E-0.07486
G1 X111.850 Y104.518 E-0.07486
G1 X111.904 Y104.834 E-0.07388
G1 X111.904 Y105.166 E-0.07681
G1 X111.850 Y105.482 E-0.07387
G1 X111.742 Y105.787 E-0.07486
G1 X111.584 Y106.070 E-0.07486
G1 X111.380 Y106.323 E-0.07486
G1 X111.137 Y106.537 E-0.07486
G1 X110.861 Y106.707 E-0.07486
G1 X110.560 Y106.828 E-0.07486
G1 X110.243 Y106.896 E-0.07486
G1 X109.919 Y106.910 E-0.07486
G1 X109.597 Y106.869 E-0.07486
G1 X109.287 Y106.774 E-0.07486
G1 X108.998 Y106.628 E-0.07486
G1 X108.868 Y106.532 E-0.03732
G1 E-0.07000 F2100.00000
G1 Z0.400 F10800.000
G1 X103.285 Y110.004
G1 Z0.200
G1 E1.40000 F2100.00000
G1 F1200.000
G1 X104.642 Y113.882 E0.12883
G1 X106.194 Y116.817 E0.10408
G1 X108.165 Y119.488 E0.10408
G1 X110.512 Y121.835 E0.10408
G1 X113.183 Y123.806 E0.10408
G1 X116.118 Y125.358 E0.10408
G1 X119.996 Y126.715 E0.12883
G1 X111.958 Y156.716 E0.97386
G1 X105.903 Y154.749 E0.19960
G1 X100.808 Y152.480 E0.17489
G1 X95.977 Y149.691 E0.17489
G1 X91.465 Y146.413 E0.17489
G1 X87.320 Y142.680 E0.17489
G1 X83.587 Y138.535 E0.17489
G1 X80.309 Y134.023 E0.17489
G1 X77.520 Y129.192 E0.17489
G1 X75.251 Y124.097 E0.17489
G1 X73.284 Y118.042 E0.19960
G1 X103.227 Y110.019 E0.97197
G1 X103.045 Y110.458 F10800.000
G1 F1200.000
G1 X104.296 Y114.033 E0.11875
G1 X105.873 Y117.018 E0.10586
G1 X107.878 Y119.734 E0.10586
G1 X110.266 Y122.122 E0.10586
G1 X112.982 Y124.127 E0.10586
G1 X115.967 Y125.704 E0.10586
G1 X119.542 Y126.955 E0.11875
G1 X111.696 Y156.235 E0.95043
G1 X106.039 Y154.396 E0.18652
G1 X100.979 Y152.144 E0.17365
G1 X96.183 Y149.375 E0.17365
G1 X91.702 Y146.119 E0.17365
G1 X87.587 Y142.413 E0.17365
G1 X83.881 Y138.298 E0.17365
G1 X80.625 Y133.817 E0.17365
G1 X77.856 Y129.021 E0.17365
G1 X75.604 Y123.961 E0.17365
G1 X73.765 Y118.304 E0.18652
G1 X102.987 Y110.474 E0.94855
G1 X103.417 Y110.311 F10800.000
G1 F8640.000
G1 X104.296 Y114.033 E-0.87564
G1 X105.215 Y115.773 E-0.45436
G1 E-0.07000 F2100.00000
G1 Z0.400 F10800.000
G1 X69.781 Y105.198
G1 Z0.200
G1 E1.40000 F2100.00000
G1 F1200.000
G1 X69.716 Y105.577 E0.01204
G1 X69.587 Y105.943 E0.01218
G1 X69.397 Y106.282 E0.01218
G1 X69.153 Y106.584 E0.01218
G1 X68.862 Y106.841 E0.01218
G1 X68.531 Y107.045 E0.01218
G1 X68.171 Y107.190 E0.01218
G1 X67.791 Y107.271 E0.01218
G1 X67.403 Y107.288 E0.01218
G1 X67.052 Y107.243 E0.01110
G1 X66.650 Y107.127 E0.01310
G1 X66.299 Y106.950 E0.01232
G1 X65.987 Y106.719 E0.01218
G1 X65.718 Y106.439 E0.01218
G1 X65.501 Y106.117 E0.01218
G1 X65.341 Y105.763 E0.01218
G1 X65.243 Y105.387 E0.01218
G1 X65.210 Y105.000 E0.01218
G1 X65.240 Y104.647 E0.01110
G1 X65.339 Y104.241 E0.01310
G1 X65.501 Y103.883 E0.01232
G1 X65.718 Y103.561 E0.01218
G1 X65.987 Y103.281 E0.01218
G1 X66.299 Y103.050 E0.01218
G1 X66.646 Y102.875 E0.01218
G1 X67.018 Y102.761 E0.01218
G1 X67.369 Y102.717 E0.01110
G1 X67.786 Y102.728 E0.01310
G1 X68.171 Y102.810 E0.01232
G1 X68.531 Y102.955 E0.01218
G1 X68.862 Y103.159 E0.01218
G1 X69.153 Y103.416 E0.01218
G1 X69.397 Y103.718 E0.01218
G1 X69.587 Y104.057 E0.01218
G1 X69.716 Y104.423 E0.01218
G1 X69.781 Y104.802 E0.01204
G1 X69.781 Y105.138 E0.01056
G1 X69.404 Y105.138 F10800.000
G1 F1200.000
G1 X69.350 Y105.482 E0.01089
G1 X69.242 Y105.787 E0.01017
G1 X69.084 Y106.070 E0.01017
G1 X68.880 Y106.323 E0.01017
G1 X68.637 Y106.537 E0.01017
G1 X68.361 Y106.707 E0.01017
G1 X68.060 Y106.828 E0.01017
G1 X67.743 Y106.896 E0.01017
G1 X67.419 Y106.910 E0.01017
G1 X67.128 Y106.873 E0.00918
G1 X66.789 Y106.774 E0.01109
G1 X66.498 Y106.628 E0.01022
G1 X66.237 Y106.435 E0.01017
G1 X66.013 Y106.201 E0.01017
G1 X65.831 Y105.932 E0.01017
G1 X65.698 Y105.637 E0.01017
G1 X65.616 Y105.323 E0.01017
G1 X65.589 Y105.000 E0.01017
G1 X65.613 Y104.708 E0.00918
G1 X65.697 Y104.365 E0.01109
G1 X65.831 Y104.068 E0.01022
G1 X66.013 Y103.799 E0.01017
G1 X66.237 Y103.565 E0.01017
G1 X66.498 Y103.372 E0.01017
G1 X66.787 Y103.226 E0.01017
G1 X67.097 Y103.131 E0.01017
G1 X67.388 Y103.094 E0.00918
G1 X67.741 Y103.104 E0.01109
G1 X68.060 Y103.172 E0.01022
G1 X68.361 Y103.293 E0.01017
G1 X68.637 Y103.463 E0.01017
G1 X68.880 Y103.677 E0.01017
G1 X69.084 Y103.930 E0.01017
G1 X69.242 Y104.213 E0.01017
G1 X69.350 Y104.518 E0.01017
G1 X69.404 Y104.834 E0.01003
G1 X69.404 Y105.078 E0.00767
G1 X69.691 Y105.334 F10800.000
G1 F8640.000
G1 X69.350 Y105.482 E-0.09394
G1 X69.242 Y105.787 E-0.07486
G1 X69.084 Y106.070 E-0.07486
G1 X68.880 Y106.323 E-0.07486
G1 X68.637 Y106.537 E-0.07486
G1 X68.361 Y106.707 E-0.07486
G1 X68.060 Y106.828 E-0.07486
G1 X67.743 Y106.896 E-0.07486
G1 X67.419 Y106.910 E-0.07486
G1 X67.128 Y106.873 E-0.06761
G1 X66.789 Y106.774 E-0.08164
G1 X66.498 Y106.628 E-0.07525
G1 X66.237 Y106.435 E-0.07486
G1 X66.013 Y106.201 E-0.07486
G1 X65.831 Y105.932 E-0.07486
G1 X65.698 Y105.637 E-0.07486
G1 X65.616 Y105.323 E-0.07486
G1 X65.602 Y105.157 E-0.03837
G1 E-0.07000 F2100.00000
G1 Z0.400 F10800.000
G1 X73.284 Y91.958
G1 Z0.200
G1 E1.40000 F2100.00000
G1 F1200.000
G1 X75.251 Y85.903 E0.19960
G1 X77.520 Y80.808 E0.17489
G1 X80.309 Y75.977 E0.17489
G1 X83.587 Y71.465 E0.17489
G1 X87.320 Y67.320 E0.17489
G1 X91.465 Y63.587 E0.17489
G1 X95.977 Y60.309 E0.17489
G1 X100.808 Y57.520 E0.17489
G1 X105.903 Y55.251 E0.17489
G1 X111.958 Y53.284 E0.19960
G1 X119.996 Y83.285 E0.97386
G1 X116.118 Y84.642 E0.12883
G1 X113.183 Y86.194 E0.10408
G1 X110.512 Y88.165 E0.10408
G1 X108.165 Y90.512 E0.10408
G1 X106.194 Y93.183 E0.10408
G1 X104.642 Y96.118 E0.10408
G1 X103.285 Y99.996 E0.12883
G1 X73.342 Y91.973 E0.97197
G1 X73.765 Y91.696 F10800.000
G1 F1200.000
G1 X75.604 Y86.039 E0.18652
G1 X77.856 Y80.979 E0.17365
G1 X80.625 Y76.183 E0.17365
G1 X83.881 Y71.702 E0.17365
G1 X87.587 Y67.587 E0.17365
G1 X91.702 Y63.881 E0.17365
G1 X96.183 Y60.625 E0.17365
G1 X100.979 Y57.856 E0.17365
G1 X106.039 Y55.604 E0.17365
G1 X111.696 Y53.765 E0.18652
M73 P0 R179
G1 X119.542 Y83.045 E0.95043
G1 X115.967 Y84.296 E0.11875
G1 X112.982 Y85.873 E0.10586
G1 X110.266 Y87.878 E0.10586
G1 X107.878 Y90.266 E0.10586
G1 X105.873 Y92.982 E0.10586
G1 X104.296 Y95.967 E0.10586
G1 X103.045 Y99.542 E0.11875
G1 X73.823 Y91.712 E0.94855
G1 X73.378 Y91.595 F10800.000
G1 F8640.000
G1 X75.548 Y86.216 E-1.33000
G1 E-0.07000 F2100.00000
G1 Z0.400 F10800.000
G1 X123.218 Y48.939
G1 Z0.200
G1 E1.40000 F2100.00000
G1 F1200.000
G1 X123.001 Y48.617 E0.01218
G1 X122.841 Y48.263 E0.01218
G1 X122.743 Y47.887 E0.01218
G1 X122.710 Y47.500 E0.01218
G1 X122.743 Y47.113 E0.01218
G1 X122.841 Y46.737 E0.01218
G1 X123.001 Y46.383 E0.01218
G1 X123.218 Y46.061 E0.01218
G1 X123.487 Y45.781 E0.01218
G1 X123.799 Y45.550 E0.01218
G1 X124.146 Y45.375 E0.01218
G1 X124.518 Y45.261 E0.01218
G1 X124.869 Y45.217 E0.01110
G1 X125.286 Y45.228 E0.01310
G1 X125.671 Y45.310 E0.01233
G1 X126.031 Y45.455 E0.01218
G1 X126.362 Y45.659 E0.01218
G1 X126.653 Y45.916 E0.01218
G1 X126.897 Y46.218 E0.01218
G1 X127.087 Y46.557 E0.01218
G1 X127.216 Y46.923 E0.01218
G1 X127.281 Y47.302 E0.01204
G1 X127.281 Y47.698 E0.01244
G1 X127.216 Y48.077 E0.01204
G1 X127.087 Y48.443 E0.01218
G1 X126.897 Y48.782 E0.01218
G1 X126.653 Y49.084 E0.01218
G1 X126.362 Y49.341 E0.01218
G1 X126.031 Y49.545 E0.01218
G1 X125.671 Y49.690 E0.01218
G1 X125.291 Y49.771 E0.01218
G1 X124.903 Y49.788 E0.01218
G1 X124.518 Y49.739 E0.01218
G1 X124.146 Y49.625 E0.01218
G1 X123.799 Y49.450 E0.01218
G1 X123.487 Y49.219 E0.01218
G1 X123.260 Y48.982 E0.01030
G1 X123.532 Y48.721 F10800.000
G1 F1200.000
G1 X123.331 Y48.432 E0.01103
G1 X123.198 Y48.137 E0.01017
G1 X123.116 Y47.823 E0.01017
G1 X123.089 Y47.500 E0.01017
G1 X123.116 Y47.177 E0.01017
G1 X123.198 Y46.863 E0.01017
